storage/app/icons/phosphoricons/bold/shirt-folded-bold.svg

<svg xmlns="http://www.w3.org/2000/svg" fill="currentColor" viewBox="0 0 256 256"><path d="M200 36h-23l-12.51-12.49A12 12 0 0 0 156 20h-56a12 12 0 0 0-8.49 3.51L79 36H56a20 20 0 0 0-20 20v152a20 20 0 0 0 20 20h144a20 20 0 0 0 20-20V56a20 20 0 0 0-20-20M96 53l7.33-7.33 15.49 26.53L96 94.48Zm41.18 19.2 15.49-26.56L160 53v41.48ZM60 60h12v44a20 20 0 0 0 34.08 14.21l9.92-9.71V204H60Zm136 144h-56v-95.5l9.92 9.69A20 20 0 0 0 184 104V60h12Z"/></svg>

<svg xmlns="http://www.w3.org/2000/svg" viewBox="0 0 256 256" fill="currentColor"><path d="M200,36H177L164.49,23.51h0A12,12,0,0,0,156,20H100a12,12,0,0,0-8.49,3.51h0L79,36H56A20,20,0,0,0,36,56V208a20,20,0,0,0,20,20H200a20,20,0,0,0,20-20V56A20,20,0,0,0,200,36ZM96,53l7.33-7.33L118.82,72.2,96,94.48ZM137.18,72.2l15.49-26.56L160,53V94.48ZM60,60H72v44a20,20,0,0,0,34.08,14.21L116,108.5V204H60ZM196,204H140V108.5l9.92,9.69A20,20,0,0,0,184,104V60h12Z"/></svg>
